X: 708
T: Chou dayan
L: 1/8
M: 2/4
K: Eb
c2G B [I:setbarnb 1]| 
e B d c | 
B2g2 | 
e d c B | 
G B G F | 
E4 | 
G BD2 | 
E F D C | 
B,2e c | 
B> c B G | 
F GB2 | 
c B G F | 
E3C | 
E2E2 | 
E3F | 
G2e c | 
F G B e | 
c BE2 | 
F> D F G/ B/ | 
G F E D | 
C> DB,2 | 
G F D C | 
B,3C | 
B,2B,2 |]

@@@ Tune index: 9582
